envergo/static/images/service-light.svg

<svg width="138" height="138" viewBox="0 0 138 138" fill="none" xmlns="http://www.w3.org/2000/svg">
<path fill-rule="evenodd" clip-rule="evenodd" d="M98.325 134.55C97.3738 134.55 96.6 133.776 96.6 132.825C96.6 131.874 97.3738 131.1 98.325 131.1C99.2761 131.1 100.05 131.874 100.05 132.825C100.05 133.776 99.2761 134.55 98.325 134.55Z" fill="#CACAFB"/>
<path fill-rule="evenodd" clip-rule="evenodd" d="M105.225 10.35C104.274 10.35 103.5 9.57616 103.5 8.62499C103.5 7.67375 104.274 6.89999 105.225 6.89999C106.176 6.89999 106.95 7.67375 106.95 8.62499C106.95 9.57616 106.176 10.35 105.225 10.35Z" fill="#CACAFB"/>
<path fill-rule="evenodd" clip-rule="evenodd" d="M46.575 134.55C45.6238 134.55 44.85 133.776 44.85 132.825C44.85 131.874 45.6238 131.1 46.575 131.1C47.5261 131.1 48.3 131.874 48.3 132.825C48.3 133.776 47.5261 134.55 46.575 134.55Z" fill="#CACAFB"/>
<path d="M77.6133 17.0488C77.5137 16.1909 76.7846 15.525 75.9 15.525C74.9473 15.525 74.175 16.2973 74.175 17.25V24.15L74.1866 24.3512C74.2862 25.2091 75.0153 25.875 75.9 25.875C76.8526 25.875 77.625 25.1027 77.625 24.15V17.25L77.6133 17.0488Z" fill="#E1000F"/>
<path d="M34.5 60.375C34.5 59.4223 33.7276 58.65 32.775 58.65H22.425L22.2238 58.6616C21.3659 58.7612 20.7 59.4903 20.7 60.375C20.7 61.3277 21.4723 62.1 22.425 62.1H32.775L32.9761 62.0884C33.834 61.9887 34.5 61.2596 34.5 60.375Z" fill="#E1000F"/>
<path fill-rule="evenodd" clip-rule="evenodd" d="M69 58.65C66.1419 58.65 63.825 60.9669 63.825 63.825C63.825 66.6831 66.1419 69 69 69C71.858 69 74.175 66.6831 74.175 63.825C74.175 60.9669 71.858 58.65 69 58.65ZM69 62.1C69.9526 62.1 70.725 62.8723 70.725 63.825C70.725 64.7777 69.9526 65.55 69 65.55C68.0473 65.55 67.275 64.7777 67.275 63.825C67.275 62.8723 68.0473 62.1 69 62.1Z" fill="#E1000F"/>
<path d="M32.775 65.55C33.7276 65.55 34.5 66.3223 34.5 67.275C34.5 68.1596 33.834 68.8887 32.9761 68.9884L32.775 69H22.425C21.4723 69 20.7 68.2277 20.7 67.275C20.7 66.3903 21.3659 65.6612 22.2238 65.5616L22.425 65.55H32.775Z" fill="#E1000F"/>
<path d="M55.2 60.375C55.2 59.4223 54.4276 58.65 53.475 58.65H43.125L42.9238 58.6616C42.0659 58.7612 41.4 59.4903 41.4 60.375C41.4 61.3277 42.1723 62.1 43.125 62.1H53.475L53.6761 62.0884C54.534 61.9887 55.2 61.2596 55.2 60.375Z" fill="#E1000F"/>
<path d="M53.475 65.55C54.4276 65.55 55.2 66.3223 55.2 67.275C55.2 68.1596 54.534 68.8887 53.6761 68.9884L53.475 69H43.125C42.1723 69 41.4 68.2277 41.4 67.275C41.4 66.3903 42.0659 65.6612 42.9238 65.5616L43.125 65.55H53.475Z" fill="#E1000F"/>
<path d="M96.6 60.375C96.6 59.4223 95.8276 58.65 94.875 58.65H84.525L84.3238 58.6616C83.4659 58.7612 82.8 59.4903 82.8 60.375C82.8 61.3277 83.5723 62.1 84.525 62.1H94.875L95.0761 62.0884C95.934 61.9887 96.6 61.2596 96.6 60.375Z" fill="#E1000F"/>
<path d="M94.875 65.55C95.8276 65.55 96.6 66.3223 96.6 67.275C96.6 68.1596 95.934 68.8887 95.0761 68.9884L94.875 69H84.525C83.5723 69 82.8 68.2277 82.8 67.275C82.8 66.3903 83.4659 65.6612 84.3238 65.5616L84.525 65.55H94.875Z" fill="#E1000F"/>
<path d="M117.3 60.375C117.3 59.4223 116.528 58.65 115.575 58.65H105.225L105.024 58.6616C104.166 58.7612 103.5 59.4903 103.5 60.375C103.5 61.3277 104.272 62.1 105.225 62.1H115.575L115.776 62.0884C116.634 61.9887 117.3 61.2596 117.3 60.375Z" fill="#E1000F"/>
<path d="M115.575 65.55C116.528 65.55 117.3 66.3223 117.3 67.275C117.3 68.1596 116.634 68.8887 115.776 68.9884L115.575 69H105.225C104.272 69 103.5 68.2277 103.5 67.275C103.5 66.3903 104.166 65.6612 105.024 65.5616L105.225 65.55H115.575Z" fill="#E1000F"/>
<path d="M70.7133 17.0488C70.6137 16.1909 69.8846 15.525 69 15.525C68.0473 15.525 67.275 16.2973 67.275 17.25V24.15L67.2866 24.3512C67.3862 25.2091 68.1153 25.875 69 25.875C69.9526 25.875 70.725 25.1027 70.725 24.15V17.25L70.7133 17.0488Z" fill="#000091"/>
<path d="M70.7133 29.1238C70.6137 28.2659 69.8846 27.6 69 27.6C68.0473 27.6 67.275 28.3723 67.275 29.325V34.5H29.325L29.1238 34.5116C28.2659 34.6112 27.6 35.3404 27.6 36.225V44.85H5.17495L4.97378 44.8616C4.11587 44.9612 3.44995 45.6904 3.44995 46.575C3.44995 47.5277 4.22226 48.3 5.17495 48.3H132.825L133.026 48.2884C133.884 48.1887 134.55 47.4596 134.55 46.575C134.55 45.6223 133.778 44.85 132.825 44.85H110.4V36.225L110.388 36.0238C110.289 35.1659 109.56 34.5 108.675 34.5C107.722 34.5 106.95 35.2723 106.95 36.225V44.85H31.05V37.95H91.425L91.6261 37.9384C92.484 37.8387 93.15 37.1096 93.15 36.225C93.15 35.2723 92.3776 34.5 91.425 34.5H70.725V29.325L70.7133 29.1238Z" fill="#000091"/>
<path d="M43.125 75.9C44.0096 75.9 44.7387 76.5659 44.8383 77.4238L44.85 77.625V112.125C44.85 113.078 44.0776 113.85 43.125 113.85C42.2403 113.85 41.5112 113.184 41.4116 112.326L41.4 112.125V77.625C41.4 76.6723 42.1723 75.9 43.125 75.9Z" fill="#000091"/>
<path d="M37.9383 84.3238C37.8387 83.4659 37.1096 82.8 36.225 82.8C35.2723 82.8 34.5 83.5723 34.5 84.525V117.3H20.7V84.525L20.6883 84.3238C20.5887 83.4659 19.8596 82.8 18.975 82.8C18.0223 82.8 17.25 83.5723 17.25 84.525V117.3H12.075L11.8738 117.312C11.0159 117.411 10.35 118.14 10.35 119.025C10.35 119.978 11.1223 120.75 12.075 120.75H36.225C36.344 120.75 36.4603 120.738 36.5726 120.715C37.3587 120.554 37.95 119.859 37.95 119.025V84.525L37.9383 84.3238Z" fill="#000091"/>
<path d="M25.875 75.9C26.7596 75.9 27.4887 76.5659 27.5883 77.4238L27.6 77.625V105.225C27.6 106.178 26.8276 106.95 25.875 106.95C24.9903 106.95 24.2612 106.284 24.1616 105.426L24.15 105.225V77.625C24.15 76.6723 24.9223 75.9 25.875 75.9Z" fill="#000091"/>
<path d="M101.775 34.5C102.728 34.5 103.5 35.2723 103.5 36.225C103.5 37.1096 102.834 37.8387 101.976 37.9384L101.775 37.95H98.325C97.3723 37.95 96.6 37.1777 96.6 36.225C96.6 35.3404 97.2659 34.6112 98.1238 34.5116L98.325 34.5H101.775Z" fill="#000091"/>
<path d="M12.075 51.75C12.9596 51.75 13.6887 52.4159 13.7883 53.2738L13.8 53.475V112.125C13.8 113.078 13.0276 113.85 12.075 113.85C11.1903 113.85 10.4612 113.184 10.3616 112.326L10.35 112.125V53.475C10.35 52.5223 11.1223 51.75 12.075 51.75Z" fill="#000091"/>
<path fill-rule="evenodd" clip-rule="evenodd" d="M82.7883 84.3238C82.6887 83.4659 81.9596 82.8 81.075 82.8H56.925L56.7238 82.8116C55.8659 82.9112 55.2 83.6404 55.2 84.525V110.4H50.025L49.8238 110.412C48.9659 110.511 48.3 111.24 48.3 112.125C48.3 113.078 49.0723 113.85 50.025 113.85H87.975L88.1761 113.838C89.034 113.739 89.7 113.01 89.7 112.125C89.7 111.172 88.9276 110.4 87.975 110.4H82.8V84.525L82.7883 84.3238ZM67.275 110.4H58.65V86.2483H79.35V110.4H70.725V94.875L70.7133 94.6738C70.6137 93.8159 69.8846 93.15 69 93.15C68.0473 93.15 67.275 93.9223 67.275 94.875V110.4Z" fill="#000091"/>
<path d="M77.625 75.9C78.5776 75.9 79.35 76.6723 79.35 77.625C79.35 78.5096 78.684 79.2387 77.8261 79.3384L77.625 79.35H60.375C59.4223 79.35 58.65 78.5777 58.65 77.625C58.65 76.7404 59.3159 76.0112 60.1738 75.9116L60.375 75.9H77.625Z" fill="#000091"/>
<path d="M94.875 75.9C93.9903 75.9 93.2612 76.5659 93.1616 77.4238L93.15 77.625V112.125C93.15 113.078 93.9223 113.85 94.875 113.85C95.7596 113.85 96.4887 113.184 96.5883 112.326L96.6 112.125V77.625C96.6 76.6723 95.8276 75.9 94.875 75.9Z" fill="#000091"/>
<path d="M100.062 84.3238C100.161 83.4659 100.89 82.8 101.775 82.8C102.728 82.8 103.5 83.5723 103.5 84.525V105.225L103.488 105.426C103.389 106.284 102.66 106.95 101.775 106.95C100.822 106.95 100.05 106.178 100.05 105.225V84.525L100.062 84.3238Z" fill="#000091"/>
<path d="M112.125 75.9C111.24 75.9 110.511 76.5659 110.412 77.4238L110.4 77.625V112.125C110.4 113.078 111.172 113.85 112.125 113.85C113.01 113.85 113.739 113.184 113.838 112.326L113.85 112.125V77.625C113.85 76.6723 113.078 75.9 112.125 75.9Z" fill="#000091"/>
<path d="M117.312 84.3238C117.411 83.4659 118.14 82.8 119.025 82.8C119.978 82.8 120.75 83.5723 120.75 84.525V119.025C120.75 119.093 120.746 119.16 120.738 119.226C120.646 120.018 120.018 120.646 119.226 120.738C119.16 120.746 119.093 120.75 119.025 120.75H43.125C42.1723 120.75 41.4 119.978 41.4 119.025C41.4 118.14 42.0659 117.411 42.9238 117.312L43.125 117.3H117.3V84.525L117.312 84.3238Z" fill="#000091"/>
<path d="M125.925 51.75C126.81 51.75 127.539 52.4159 127.638 53.2738L127.65 53.475V119.025C127.65 119.978 126.878 120.75 125.925 120.75C125.04 120.75 124.311 120.084 124.212 119.226L124.2 119.025V53.475C124.2 52.5223 124.972 51.75 125.925 51.75Z" fill="#000091"/>
</svg>

<svg width="138" height="138" fill="none" xmlns="http://www.w3.org/2000/svg"><path fill-rule="evenodd" clip-rule="evenodd" d="M98.325 134.55a1.727 1.727 0 0 1-1.725-1.725c0-.951.774-1.725 1.725-1.725.951 0 1.725.774 1.725 1.725 0 .951-.774 1.725-1.725 1.725Zm6.9-124.2a1.727 1.727 0 0 1-1.725-1.725c0-.951.774-1.725 1.725-1.725.951 0 1.725.774 1.725 1.725 0 .951-.774 1.725-1.725 1.725Zm-58.65 124.2a1.727 1.727 0 0 1-1.725-1.725c0-.951.774-1.725 1.725-1.725.951 0 1.725.774 1.725 1.725 0 .951-.774 1.725-1.725 1.725Z" fill="#CACAFB"/><path d="M77.613 17.049a1.725 1.725 0 0 0-3.438.201v6.9l.012.201a1.725 1.725 0 0 0 3.438-.201v-6.9l-.012-.201ZM34.5 60.375c0-.953-.772-1.725-1.725-1.725h-10.35l-.201.012a1.725 1.725 0 0 0 .201 3.438h10.35l.201-.012a1.725 1.725 0 0 0 1.524-1.713Z" fill="#E1000F"/><path fill-rule="evenodd" clip-rule="evenodd" d="M69 58.65A5.175 5.175 0 1 0 69 69a5.175 5.175 0 0 0 0-10.35Zm0 3.45a1.725 1.725 0 1 1 0 3.45 1.725 1.725 0 0 1 0-3.45Z" fill="#E1000F"/><path d="M32.775 65.55a1.725 1.725 0 0 1 .201 3.438l-.201.012h-10.35a1.725 1.725 0 0 1-.201-3.438l.201-.012h10.35ZM55.2 60.375c0-.953-.772-1.725-1.725-1.725h-10.35l-.201.012a1.725 1.725 0 0 0 .201 3.438h10.35l.201-.012a1.725 1.725 0 0 0 1.524-1.713Zm-1.725 5.175a1.725 1.725 0 0 1 .201 3.438l-.201.012h-10.35a1.725 1.725 0 0 1-.201-3.438l.201-.012h10.35ZM96.6 60.375c0-.953-.772-1.725-1.725-1.725h-10.35l-.201.012a1.725 1.725 0 0 0 .201 3.438h10.35l.201-.012a1.725 1.725 0 0 0 1.524-1.713Zm-1.725 5.175a1.725 1.725 0 0 1 .201 3.438l-.201.012h-10.35a1.725 1.725 0 0 1-.201-3.438l.201-.012h10.35Zm22.425-5.175c0-.953-.772-1.725-1.725-1.725h-10.35l-.201.012a1.725 1.725 0 0 0 .201 3.438h10.35l.201-.012a1.725 1.725 0 0 0 1.524-1.713Zm-1.725 5.175a1.725 1.725 0 0 1 .201 3.438l-.201.012h-10.35a1.725 1.725 0 0 1-.201-3.438l.201-.012h10.35Z" fill="#E1000F"/><path d="M70.713 17.049a1.725 1.725 0 0 0-3.438.201v6.9l.012.201a1.725 1.725 0 0 0 3.438-.201v-6.9l-.012-.201Zm0 12.075a1.725 1.725 0 0 0-3.438.201V34.5h-37.95l-.201.012c-.858.1-1.524.828-1.524 1.713v8.625H5.175l-.201.012a1.725 1.725 0 0 0 .2 3.438h127.651l.201-.012a1.725 1.725 0 0 0-.201-3.438H110.4v-8.625l-.012-.201a1.724 1.724 0 0 0-3.438.201v8.625h-75.9v-6.9h60.375l.201-.012a1.725 1.725 0 0 0-.201-3.438h-20.7v-5.175l-.012-.201ZM43.125 75.9c.885 0 1.614.666 1.713 1.524l.012.201v34.5a1.725 1.725 0 0 1-3.438.201l-.012-.201v-34.5c0-.953.772-1.725 1.725-1.725Zm-5.187 8.424a1.725 1.725 0 0 0-3.438.201V117.3H20.7V84.525l-.012-.201a1.725 1.725 0 0 0-3.438.201V117.3h-5.175l-.201.012a1.724 1.724 0 0 0 .201 3.438h24.15a1.725 1.725 0 0 0 1.725-1.725v-34.5l-.012-.201Z" fill="#000091"/><path d="M25.875 75.9c.885 0 1.614.666 1.713 1.524l.012.201v27.6a1.725 1.725 0 0 1-3.438.201l-.012-.201v-27.6c0-.953.772-1.725 1.725-1.725Zm75.9-41.4a1.725 1.725 0 0 1 .201 3.438l-.201.012h-3.45a1.725 1.725 0 0 1-.201-3.438l.201-.012h3.45Zm-89.7 17.25c.885 0 1.614.666 1.713 1.524l.012.201v58.65a1.725 1.725 0 0 1-3.438.201l-.012-.201v-58.65c0-.953.772-1.725 1.725-1.725Z" fill="#000091"/><path fill-rule="evenodd" clip-rule="evenodd" d="M82.788 84.324a1.725 1.725 0 0 0-1.713-1.524h-24.15l-.201.012c-.858.1-1.524.828-1.524 1.713V110.4h-5.175l-.201.012a1.724 1.724 0 0 0 .201 3.438h37.95l.201-.012a1.724 1.724 0 0 0-.201-3.438H82.8V84.525l-.012-.201ZM67.275 110.4H58.65V86.248h20.7V110.4h-8.625V94.875l-.012-.201a1.725 1.725 0 0 0-3.438.201V110.4Z" fill="#000091"/><path d="M77.625 75.9a1.725 1.725 0 0 1 .201 3.438l-.201.012h-17.25a1.725 1.725 0 0 1-.201-3.438l.201-.012h17.25Zm17.25 0c-.885 0-1.614.666-1.713 1.524l-.012.201v34.5a1.725 1.725 0 0 0 3.438.201l.012-.201v-34.5c0-.953-.772-1.725-1.725-1.725Zm5.187 8.424a1.724 1.724 0 0 1 3.438.201v20.7l-.012.201a1.724 1.724 0 0 1-3.438-.201v-20.7l.012-.201Zm12.063-8.424c-.885 0-1.614.666-1.713 1.524l-.012.201v34.5a1.725 1.725 0 0 0 3.438.201l.012-.201v-34.5c0-.953-.772-1.725-1.725-1.725Z" fill="#000091"/><path d="M117.312 84.324a1.724 1.724 0 0 1 3.438.201v34.5a1.725 1.725 0 0 1-1.725 1.725h-75.9a1.725 1.725 0 0 1-.201-3.438l.201-.012H117.3V84.525l.012-.201Zm8.613-32.574c.885 0 1.614.666 1.713 1.524l.012.201v65.55a1.725 1.725 0 0 1-3.438.201l-.012-.201v-65.55c0-.953.772-1.725 1.725-1.725Z" fill="#000091"/></svg>
